X: 477
T: Dark Lough na Gar
N:"With feeling" "collected by Cronin"
N:Irish title: Lo.c dor.ca na gar
B:O'Neill's 477
Z:Transcribed by henrik.norbeck@mailbox.swipnet.se
M:6/8
L:1/8
K:D
(f/e/) | .d.c.A .F.G.A | (cAg) f>ed | cAF G>FG | (AFD) C2 (f/e/) |
dcA FGA | (cAg) (f>ed) | (cAF) (~G>F).G | (AF).D D2 :|
(d/e/) | fef (g2 a/g/) | f>ed cAg | f>ef (g<a)g | (fdc) (d3/2e/f/g/) |
afa g>fe | dcA f>ed | (cA).F (~G>F).G | (AF).D D2 :|


